X:1
T:Milton, 88.88.88
T:Milton, 88.88.88
T:William Henry Longhurst, 1889
T:Public Domain Courtesy of the Cyber Hymnal™
C:William Henry Longhurst, 1889
Z:Public Domain
Z:Courtesy of the Cyber Hymnal™
%%score ( 1 2 ) ( 3 4 )
L:1/8
Q:1/4=112
M:4/4
K:Eb
V:1 treble 
V:2 treble 
V:3 bass 
V:4 bass 
V:1
 [EB]2 [EB]2 [Ge]2 | [Gd]2 [Ec]2 [EB]2 [B,E]2 | [DA]3 [EG] [CF]2 [Dc]2 | [EB]2 [EG]2 [EG]2 [EF]2 | %4
 [DF]2 [DF]2 [EG]2 [Ge]2 | [^Fd]2 [=Ac]2 [GB]3 [DA] | [DB]2 [Gc]2 [Fd]2 F2 | %7
 [EG]2 [=Ed]2 [_Ec]2 [E=A]2 | [DB]2 [FB]2 [Fc]2 [Fd]2 | [Ee]2 [EG]2 [EA]2 [EB]2 | %10
 [Ec]2 [Fc]2 [Fd]2 [Ee]2 | [Ec]2 [EB]2 [FA]2 [DF]2 | [B,E]2 |] %13
V:2
 x6 | x8 | x8 | x8 | x8 | x8 | x6 F2 | x8 | x8 | x8 | x8 | x8 | x2 |] %13
V:3
 [E,G,]2 [E,G,]2 [C,E,]2 | [B,,G,]2 [A,,A,]2 [G,,B,]2 G,2 | [F,B,]3 [E,B,] A,2 [F,A,]2 | %3
 [G,B,]2 [E,B,]2 [C,=A,]2 [C,A,]2 | [B,,B,]2 [B,,B,]2 [E,B,]2 [C,C]2 | %5
 [D,=A,]2 [^F,D]2 [G,D]3 [F,D] | [G,B,]2 [=E,B,]2 [F,B,]2 [D,B,]2 | %7
 [E,B,]2 [C,B,]2 [F,=A,]2 [F,C]2 | [B,,B,]2 [B,D]2 [=A,C]2 [_A,B,]2 | %9
 [G,B,]2 [_D,B,]2 [C,A,]2 [B,,G,]2 | [A,,A,]2 [F,A,]2 [B,,A,]2 [C,G,]2 | %11
 [A,,A,]2 [G,,B,]2 [A,,C]2 [B,,A,]2 | [E,G,]2 |] %13
V:4
 x6 | x6 G,2 | x4 A,2 x2 | x8 | x8 | x8 | x8 | x8 | x8 | x8 | x8 | x8 | x2 |] %13

